svg/u1f1eb.svg

<svg viewBox="0 0 128 128" xmlns="http://www.w3.org/2000/svg">
  <path d="m101.15 15.54h-66.29c-1.23 0-2.24 1-2.24 2.24v100.97c0 1.24 1.01 2.24 2.24 2.24h21.89c1.24 0 2.24-1 2.24-2.24v-44h35.11c1.24 0 2.24-1 2.24-2.24v-16.72c0-1.24-1-2.24-2.24-2.24h-35.11v-16.8h42.16c1.24 0 2.24-1 2.24-2.24v-16.73c0-1.24-1-2.24-2.24-2.24z" fill="#40C0E7"/>
</svg>

<svg viewBox="0 0 128 128" xmlns="http://www.w3.org/2000/svg">
  <defs/>
  <path d="M101.15,15.54 L34.86,15.54 C33.63,15.54 32.62,16.54 32.62,17.78 L32.62,118.75 C32.62,119.99 33.63,120.99 34.86,120.99 L56.75,120.99 C57.99,120.99 58.99,119.99 58.99,118.75 L58.99,74.75 L94.1,74.75 C95.34,74.75 96.34,73.75 96.34,72.51 L96.34,55.79 C96.34,54.55 95.34,53.55 94.1,53.55 L58.99,53.55 L58.99,36.75 L101.15,36.75 C102.39,36.75 103.39,35.75 103.39,34.51 L103.39,17.78 C103.39,16.54 102.39,15.54 101.15,15.54 Z" fill="#40C0E7"/>
</svg>
